assets/1. F-P/Frog/Color/Frog-color.svg

<svg width="100%" height="100%" viewBox="0 0 32 32" fill="none" xmlns="http://www.w3.org/2000/svg">
<path d="M27.48 10.8413C27.82 10.1113 28.01 9.30127 28 8.44127C27.96 5.48127 25.57 3.07127 22.62 3.00127C19.79 2.94127 17.43 5.01127 17.05 7.73127C17.03 7.88127 16.9 8.00127 16.74 8.00127H15.25C15.09 8.00127 14.96 7.88127 14.94 7.73127C14.57 5.02127 12.21 2.94127 9.38 3.00127C6.43 3.07127 4.04 5.48127 4 8.43127C3.99 9.29127 4.18 10.1113 4.52 10.8313C4.67 11.1613 4.62 11.5513 4.39 11.8313C2.9 13.6513 2 15.9713 2 18.5013C2 24.3013 6.7 29.0013 12.5 29.0013H19.5C25.3 29.0013 30 24.3013 30 18.5013C30 15.9713 29.1 13.6513 27.61 11.8313C27.38 11.5513 27.33 11.1713 27.48 10.8413Z" fill="url(#paint0_radial_28327_5370)"/>
<path d="M27.48 10.8413C27.82 10.1113 28.01 9.30127 28 8.44127C27.96 5.48127 25.57 3.07127 22.62 3.00127C19.79 2.94127 17.43 5.01127 17.05 7.73127C17.03 7.88127 16.9 8.00127 16.74 8.00127H15.25C15.09 8.00127 14.96 7.88127 14.94 7.73127C14.57 5.02127 12.21 2.94127 9.38 3.00127C6.43 3.07127 4.04 5.48127 4 8.43127C3.99 9.29127 4.18 10.1113 4.52 10.8313C4.67 11.1613 4.62 11.5513 4.39 11.8313C2.9 13.6513 2 15.9713 2 18.5013C2 24.3013 6.7 29.0013 12.5 29.0013H19.5C25.3 29.0013 30 24.3013 30 18.5013C30 15.9713 29.1 13.6513 27.61 11.8313C27.38 11.5513 27.33 11.1713 27.48 10.8413Z" fill="url(#paint1_radial_28327_5370)"/>
<path d="M27.48 10.8413C27.82 10.1113 28.01 9.30127 28 8.44127C27.96 5.48127 25.57 3.07127 22.62 3.00127C19.79 2.94127 17.43 5.01127 17.05 7.73127C17.03 7.88127 16.9 8.00127 16.74 8.00127H15.25C15.09 8.00127 14.96 7.88127 14.94 7.73127C14.57 5.02127 12.21 2.94127 9.38 3.00127C6.43 3.07127 4.04 5.48127 4 8.43127C3.99 9.29127 4.18 10.1113 4.52 10.8313C4.67 11.1613 4.62 11.5513 4.39 11.8313C2.9 13.6513 2 15.9713 2 18.5013C2 24.3013 6.7 29.0013 12.5 29.0013H19.5C25.3 29.0013 30 24.3013 30 18.5013C30 15.9713 29.1 13.6513 27.61 11.8313C27.38 11.5513 27.33 11.1713 27.48 10.8413Z" fill="url(#paint2_radial_28327_5370)"/>
<path d="M9.5 12C11.433 12 13 10.433 13 8.5C13 6.567 11.433 5 9.5 5C7.567 5 6 6.567 6 8.5C6 10.433 7.567 12 9.5 12Z" fill="#F8D41E"/>
<path d="M9.5 11C10.8807 11 12 9.88071 12 8.5C12 7.11929 10.8807 6 9.5 6C8.11929 6 7 7.11929 7 8.5C7 9.88071 8.11929 11 9.5 11Z" fill="url(#paint3_radial_28327_5370)"/>
<path d="M22.5 12C24.433 12 26 10.433 26 8.5C26 6.567 24.433 5 22.5 5C20.567 5 19 6.567 19 8.5C19 10.433 20.567 12 22.5 12Z" fill="#F8D41E"/>
<path d="M22.5 11.0012C23.8807 11.0012 25 9.88193 25 8.50122C25 7.12051 23.8807 6.00122 22.5 6.00122C21.1193 6.00122 20 7.12051 20 8.50122C20 9.88193 21.1193 11.0012 22.5 11.0012Z" fill="url(#paint4_radial_28327_5370)"/>
<path d="M17.5 14.0012C17.7761 14.0012 18 13.7774 18 13.5012C18 13.2251 17.7761 13.0012 17.5 13.0012C17.2239 13.0012 17 13.2251 17 13.5012C17 13.7774 17.2239 14.0012 17.5 14.0012Z" fill="#30223D"/>
<path d="M14.5 14.0012C14.7761 14.0012 15 13.7774 15 13.5012C15 13.2251 14.7761 13.0012 14.5 13.0012C14.2239 13.0012 14 13.2251 14 13.5012C14 13.7774 14.2239 14.0012 14.5 14.0012Z" fill="#30223D"/>
<path d="M27.57 20.3913C26.39 20.3913 25.3 19.9913 24.42 19.3313C22.11 17.4813 19.18 16.3813 15.99 16.3813C12.77 16.3813 9.82001 17.5013 7.50001 19.3813V19.3713C6.64001 20.0113 5.56001 20.3913 4.40001 20.3913H2.17001C3.06001 25.2913 7.35001 29.0013 12.5 29.0013H19.5C24.65 29.0013 28.94 25.2913 29.83 20.3913H27.57Z" fill="url(#paint5_linear_28327_5370)"/>
<defs>
<radialGradient id="paint0_radial_28327_5370" cx="0" cy="0" r="1" gradientUnits="userSpaceOnUse" gradientTransform="translate(22.375 16.0006) rotate(177.024) scale(21.6542 23.3188)">
<stop offset="0.131304" stop-color="#63F6AE"/>
<stop offset="1" stop-color="#4EB883"/>
</radialGradient>
<radialGradient id="paint1_radial_28327_5370" cx="0" cy="0" r="1" gradientUnits="userSpaceOnUse" gradientTransform="translate(11.125 7.78125) rotate(-60.5463) scale(3.05052 4.46645)">
<stop stop-color="#60EEA4"/>
<stop offset="1" stop-color="#60EEA4" stop-opacity="0"/>
</radialGradient>
<radialGradient id="paint2_radial_28327_5370" cx="0" cy="0" r="1" gradientUnits="userSpaceOnUse" gradientTransform="translate(23.7813 8.65625) rotate(-67.1095) scale(4.57938 6.00348)">
<stop stop-color="#60EEA4"/>
<stop offset="1" stop-color="#60EEA4" stop-opacity="0"/>
</radialGradient>
<radialGradient id="paint3_radial_28327_5370" cx="0" cy="0" r="1" gradientUnits="userSpaceOnUse" gradientTransform="translate(12 7.125) rotate(147.095) scale(3.79659 1.97422)">
<stop stop-color="#5E5764"/>
<stop offset="1" stop-color="#3C2A4F"/>
</radialGradient>
<radialGradient id="paint4_radial_28327_5370" cx="0" cy="0" r="1" gradientUnits="userSpaceOnUse" gradientTransform="translate(25 7.12622) rotate(147.095) scale(3.79659 1.97422)">
<stop stop-color="#5E5764"/>
<stop offset="1" stop-color="#3C2A4F"/>
</radialGradient>
<linearGradient id="paint5_linear_28327_5370" x1="16" y1="41.875" x2="16" y2="18.125" gradientUnits="userSpaceOnUse">
<stop offset="0.513158" stop-color="#FF95F4"/>
<stop offset="0.605263" stop-color="#FA946C"/>
<stop offset="1" stop-color="#FFE55D"/>
</linearGradient>
</defs>
</svg>

<svg width="100%" height="100%" viewBox="0 0 32 32" xmlns="http://www.w3.org/2000/svg"><path fill="url(#a)" d="M27.48 10.841c.34-.73.53-1.54.52-2.4a5.527 5.527 0 0 0-5.38-5.44 5.5 5.5 0 0 0-5.57 4.73c-.02.15-.15.27-.31.27h-1.49c-.16 0-.29-.12-.31-.27a5.49 5.49 0 0 0-5.56-4.73c-2.95.07-5.34 2.48-5.38 5.43-.01.86.18 1.68.52 2.4.15.33.1.72-.13 1A10.5 10.5 0 0 0 2 18.501c0 5.8 4.7 10.5 10.5 10.5h7c5.8 0 10.5-4.7 10.5-10.5 0-2.53-.9-4.85-2.39-6.67a.94.94 0 0 1-.13-.99"/><path fill="url(#b)" d="M27.48 10.841c.34-.73.53-1.54.52-2.4a5.527 5.527 0 0 0-5.38-5.44 5.5 5.5 0 0 0-5.57 4.73c-.02.15-.15.27-.31.27h-1.49c-.16 0-.29-.12-.31-.27a5.49 5.49 0 0 0-5.56-4.73c-2.95.07-5.34 2.48-5.38 5.43-.01.86.18 1.68.52 2.4.15.33.1.72-.13 1A10.5 10.5 0 0 0 2 18.501c0 5.8 4.7 10.5 10.5 10.5h7c5.8 0 10.5-4.7 10.5-10.5 0-2.53-.9-4.85-2.39-6.67a.94.94 0 0 1-.13-.99"/><path fill="url(#c)" d="M27.48 10.841c.34-.73.53-1.54.52-2.4a5.527 5.527 0 0 0-5.38-5.44 5.5 5.5 0 0 0-5.57 4.73c-.02.15-.15.27-.31.27h-1.49c-.16 0-.29-.12-.31-.27a5.49 5.49 0 0 0-5.56-4.73c-2.95.07-5.34 2.48-5.38 5.43-.01.86.18 1.68.52 2.4.15.33.1.72-.13 1A10.5 10.5 0 0 0 2 18.501c0 5.8 4.7 10.5 10.5 10.5h7c5.8 0 10.5-4.7 10.5-10.5 0-2.53-.9-4.85-2.39-6.67a.94.94 0 0 1-.13-.99"/><path fill="#F8D41E" d="M9.5 12a3.5 3.5 0 1 0 0-7 3.5 3.5 0 0 0 0 7"/><path fill="url(#d)" d="M9.5 11a2.5 2.5 0 1 0 0-5 2.5 2.5 0 0 0 0 5"/><path fill="#F8D41E" d="M22.5 12a3.5 3.5 0 1 0 0-7 3.5 3.5 0 0 0 0 7"/><path fill="url(#e)" d="M22.5 11.001a2.5 2.5 0 1 0 0-5 2.5 2.5 0 0 0 0 5"/><path fill="#30223D" d="M17.5 14.001a.5.5 0 1 0 0-1 .5.5 0 0 0 0 1M14.5 14.001a.5.5 0 1 0 0-1 .5.5 0 0 0 0 1"/><path fill="url(#f)" d="M27.57 20.391c-1.18 0-2.27-.4-3.15-1.06a13.43 13.43 0 0 0-8.43-2.95c-3.22 0-6.17 1.12-8.49 3v-.01a5.2 5.2 0 0 1-3.1 1.02H2.17c.89 4.9 5.18 8.61 10.33 8.61h7c5.15 0 9.44-3.71 10.33-8.61z"/><defs><radialGradient id="a" cx="0" cy="0" r="1" gradientTransform="matrix(-21.625 1.12424 -1.21066 -23.28735 22.375 16)" gradientUnits="userSpaceOnUse"><stop offset=".131" stop-color="#63F6AE"/><stop offset="1" stop-color="#4EB883"/></radialGradient><radialGradient id="b" cx="0" cy="0" r="1" gradientTransform="matrix(1.5 -2.65625 3.88918 2.19624 11.125 7.781)" gradientUnits="userSpaceOnUse"><stop stop-color="#60EEA4"/><stop offset="1" stop-color="#60EEA4" stop-opacity="0"/></radialGradient><radialGradient id="c" cx="0" cy="0" r="1" gradientTransform="rotate(-67.11 18.416 -13.6)scale(4.57938 6.00348)" gradientUnits="userSpaceOnUse"><stop stop-color="#60EEA4"/><stop offset="1" stop-color="#60EEA4" stop-opacity="0"/></radialGradient><radialGradient id="d" cx="0" cy="0" r="1" gradientTransform="rotate(147.095 4.948 5.334)scale(3.79659 1.97422)" gradientUnits="userSpaceOnUse"><stop stop-color="#5E5764"/><stop offset="1" stop-color="#3C2A4F"/></radialGradient><radialGradient id="e" cx="0" cy="0" r="1" gradientTransform="matrix(-3.18751 2.06249 -1.0725 -1.6575 25 7.126)" gradientUnits="userSpaceOnUse"><stop stop-color="#5E5764"/><stop offset="1" stop-color="#3C2A4F"/></radialGradient><linearGradient id="f" x1="16" x2="16" y1="41.875" y2="18.125" gradientUnits="userSpaceOnUse"><stop offset=".513" stop-color="#FF95F4"/><stop offset=".605" stop-color="#FA946C"/><stop offset="1" stop-color="#FFE55D"/></linearGradient></defs></svg>
